dist/img/picture/brands/wurth.svg

<svg width="124" height="27" viewBox="0 0 124 27" fill="none" xmlns="http://www.w3.org/2000/svg">
<g clip-path="url(#clip0_1301_1385)">
<path d="M86.3845 22.5495H91.706L87.9153 15.8737C90.0294 14.9836 91.1958 13.2033 91.1958 10.9781C91.1958 7.56597 89.0088 5.3407 84.6349 5.3407H76.2516V22.5495H80.8442V16.5412H83.1769L86.3845 22.5495ZM86.5303 10.9781C86.5303 12.1649 85.7284 13.055 83.9788 13.055H80.7713V8.90114H83.9788C85.7284 8.90114 86.5303 9.79125 86.5303 10.9781ZM68.0141 10.1621V15.6511C68.0141 18.1731 66.8477 18.9891 65.244 18.9891C63.7131 18.9891 62.4738 18.0989 62.4738 15.6511V10.088H57.8083V15.8737C57.8083 20.3984 60.2869 22.9204 65.3169 22.9204C70.3468 22.9204 72.7525 20.3984 72.7525 15.9478V10.1621H68.0141ZM62.4738 8.60443V5.3407H57.8083V8.60443H62.4738ZM68.0141 8.60443H72.6796V5.3407H68.0141V8.60443ZM38.4174 16.7638L36.0117 5.3407H31.3463L35.6473 22.5495H40.6043L43.5203 11.2748L46.4362 22.5495H51.3933L55.6943 5.3407H51.0288L48.6231 16.7638L45.7072 5.3407H41.3333L38.4174 16.7638ZM119.262 11.4973H113.576V5.3407H108.91V22.5495H113.576V15.3544H119.262V22.5495H124V5.3407H119.262V11.4973ZM97.2463 9.12367V22.6237H101.912V9.12367H106.286V5.3407H92.8724V9.12367H97.2463Z" fill="#1F2120"/>
<path d="M24.2751 10.6071H0V0H10.1329V4.15385H14.2152V0H24.348V10.6071H24.2751ZM14.1423 22.9203V27.0742C19.9741 25.9615 24.2751 20.8434 24.2751 15.0577V14.8352H0V15.0577C0 20.7692 4.301 25.8874 10.1329 27V22.8462H14.1423V22.9203Z" fill="#CC0000"/>
</g>
<defs>
<clipPath id="clip0_1301_1385">
<rect width="124" height="27" fill="white"/>
</clipPath>
</defs>
</svg>

<svg width="124" height="27" viewBox="0 0 124 27" fill="none" xmlns="http://www.w3.org/2000/svg"><g clip-path="url(#clip0_1301_1385)"><path d="M86.385 22.55h5.321l-3.79-6.676c2.113-.89 3.28-2.67 3.28-4.896 0-3.412-2.187-5.637-6.561-5.637h-8.383v17.208h4.592v-6.008h2.333l3.207 6.008zm.145-11.572c0 1.187-.802 2.077-2.551 2.077H80.77V8.901h3.208c1.75 0 2.551.89 2.551 2.077zm-18.516-.816v5.49c0 2.521-1.166 3.337-2.77 3.337-1.53 0-2.77-.89-2.77-3.338v-5.563h-4.666v5.786c0 4.524 2.479 7.046 7.509 7.046s7.436-2.522 7.436-6.972v-5.786h-4.739zm-5.54-1.558V5.341h-4.666v3.263h4.666zm5.54 0h4.666V5.341h-4.666v3.263zm-29.597 8.16L36.012 5.34h-4.666l4.301 17.208h4.957l2.916-11.274 2.916 11.274h4.957L55.694 5.34H51.03l-2.406 11.423L45.707 5.34h-4.374l-2.916 11.423zm80.845-5.267h-5.686V5.341h-4.666v17.208h4.666v-7.195h5.686v7.195H124V5.341h-4.738v6.156zM97.246 9.124v13.5h4.666v-13.5h4.374V5.34H92.872v3.783h4.374z" fill="#1F2120"/><path d="M24.275 10.607H0V0h10.133v4.154h4.082V0h10.133v10.607h-.073zM14.142 22.92v4.154c5.832-1.113 10.133-6.23 10.133-12.016v-.223H0v.223C0 20.769 4.301 25.888 10.133 27v-4.154h4.01v.074z" fill="#C00"/></g><defs><clipPath id="clip0_1301_1385"><path fill="#fff" d="M0 0h124v27H0z"/></clipPath></defs></svg>
